X:6
T:Chromatic Etude
M:3/4
L:1/4
Q:1/2=50
K:F
 (A/B/=B/c/d/c/) | f3 | (A/B/=B/c/d/c/) | a3 | (g/e/f/^f/g/a/)| (g/e/f/^f/g/a/) | (g/e/f/^f/g/a/) |
 (g/=f/e/d/c/B/) | (A/B/=B/c/d/c/) | f3 | (d/_e/=e/f/g/f/) | d'3 | (c'/=b/d'/c'/a/f/) | (e/c/B/G/E/C/) | (F/A/B/c/d/e/) | f3 |]
